X:6390
T:a Trip to Runcorn
A:North-West
M:6/8
O:England
R:Jig
Z:Richard Robinson 
%%TUNEURL: http://www.leeds.ac.uk/music/Info/RRTuneBk/gettune/000004d6.html
%%ID:000004d6
K:D
aba afd| ded dAF| FAd dfa| gaf e2a|\
aba afd| ded dAF| FAd dfa| gec d3::\
ded f2a| a^gg g3| ba^g fed| cde e2a|\
ba^g fed| cde f^ga| aba "tr"^g2g| a3 a3:|
